X:1
T:Willerby, 84.84.888
T:Ebenezer Prout (1835-1909)
T:Willerby, 84.84.888
T:Public Domain
C:Ebenezer Prout (1835-1909)
Z:Public Domain
%%score ( 1 2 ) ( 3 4 )
L:1/8
M:4/4
K:Eb
V:1 treble 
V:2 treble 
V:3 bass 
V:4 bass 
V:1
 [B,E]2 | [EG]2 F2 [EG]2 [EB]2 | E2 z c [GB]2 [EB]2 | A4 G2 [DF]2 | [EG]6 [EG]2 | %5
 [EB]2 [DB]2 [EB]2 [DB]2 | G2 [F=A]2 [FB]2 [GB]2 | [Ee]4 ([Fd]2 [Ec]2) | [DB]6 [EB]2 | %9
 [GB]2 [FA]2 [FG]2 [F_d]2 | [=Ec]2 [GB]2 [FA]2 [Ac]2 | [Af]3 [Af] [Ae]2 A2 | A2 z =d [Ac]2 [Fc]2 | %13
 [GB]2 E2 [DF]2 [EG]2 | [DF]3 E E2 |] %15
V:2
 x2 | x2 F2 x4 | c3 F2 x3 | E6 x2 | x8 | x8 | G2 x6 | x8 | x8 | x8 | x8 | x6 A2 | _d3 G2 x3 | %13
 x2 E2 x4 | x3 E E2 |] %15
V:3
 [E,G,]2 | [E,B,]2 [D,B,]2 [E,B,]2 [G,E]2 | [A,C]2 [A,D]2 [G,E]2 [G,B,]2 | ([F,C]4 B,2) [B,,B,]2 | %4
 [E,B,]6 [E,B,]2 | [G,B,]2 [F,A,]2 [G,B,]2 B,2 | A,2 z E [B,D]2 [G,D]2 | %7
 [C,C]4 ([F,B,]2 [F,=A,]2) | [B,,B,]6 [G,B,]2 | [=E,C]2 [F,C]2 [B,,_D]2 [B,,G,]2 | %10
 [C,G,]2 [=E,C]2 [F,C]2 [F,C]2 | [_D,_D]3 [D,D] [A,C]2 [A,C]2 | [E,B,]2 [E,B,]2 [A,,C]2 [A,D]2 | %13
 [G,E]2 [G,B,]2 [F,A,]2 [E,B,]2 | [B,,A,]3 [E,G,] [E,G,]2 |] %15
V:4
 x2 | x8 | x8 | x4 B,2 x2 | x8 | x6 B,2 | C3 C2 x3 | x8 | x8 | x8 | x8 | x8 | x8 | x8 | x6 |] %15

